X:176 
T:Rambling Connachtman* (reel), The 
S:Sheahan MS
F:file ID: cre.4/176ramb_c
B:CRE4.173 (Camchuairt an Chonnachtaigh)
N:The Gaelic means "Connachtman's Rambles" so I gave the reel a new name 
to avoid confusion with the well-known (but unrelated) jig.
L:1/8
M:4/4
Q:180
R:reel
K:G
Bc|dBGf g2 fg|ecAB c2 ce|dBGf g2 fe|dcBA GABc|
dBGf g2 fg|ecAB c2 ce|dBGf g2 fe|dcBA GBdf ||
g2 eg f2 df|g2 ef gbaf|g2 eg fdge|dcBA GBdf|
gfeg fedf|edBe dBGB|cBAB cdeg|fdef g4||

%%%

